X:74
T:Springlek efter Fjös Erik
O:Lima, Dalarna
R:Polska
Z:Anton Teljebäck 2007-12-09
S:efter [[Personer/Fjös Erik]], Lima
S:känd genom [[Personer/Zara Helje]]
M:3/4
L:1/8
K:D
A2 a2 g>e | (3f2f2a2 e2 |(dc) (A>c) d>f | (3(fe)(e e>)uc A2- |
A2 a2 g>e | (3f2f2a2 e>e | (dc) (A>c) d>f | (3ece d4 :|
(d>c) A2 c>d | e>(g f)<d e2 |(d>c) (Ac) d>f | (3(fe)(e ue>)c A2 |
(d>c) Az c>d | e>(g f)<d e2- | e>(f g)a/g/ f>e | c<e d4 :|
(:musicend:)

Så här står den skriven i Gutalåtar (nr 347):

(:music:)
